src/images/instagram.svg

<svg width="47" height="47" viewBox="0 0 47 47" fill="none" xmlns="http://www.w3.org/2000/svg">
<path d="M46.7148 23.5478C46.7148 26.8821 46.7148 30.2165 46.7148 33.6188C46.7148 39.8792 42.1461 45.323 36.009 46.4798C35.2589 46.5478 34.4406 46.6158 33.6905 46.6158C26.8033 46.6158 19.9844 46.6839 13.0972 46.6158C9.21038 46.5478 6.00546 44.9147 3.48243 41.9886C1.36855 39.5389 0.345703 36.6129 0.345703 33.4147C0.345703 26.8141 0.345703 20.1455 0.345703 13.5449C0.345703 7.14845 4.77804 1.77271 11.0515 0.547862C11.8016 0.411767 12.6199 0.34372 13.37 0.34372C20.2571 0.34372 27.0761 0.275673 33.9633 0.34372C37.8501 0.411767 41.055 2.0449 43.578 4.97093C45.6919 7.42063 46.7148 10.2786 46.7148 13.5449C46.7148 16.8792 46.7148 20.2135 46.7148 23.5478ZM4.09614 23.4798C4.09614 26.8141 4.09614 30.1484 4.09614 33.4147C4.09614 33.891 4.09614 34.4354 4.16433 34.9117C4.70985 39.3348 8.59667 42.8052 13.029 42.8733C19.9162 42.9413 26.8033 42.8733 33.6905 42.8733C34.236 42.8733 34.7134 42.8052 35.2589 42.7372C39.8958 41.8525 42.8961 38.1099 42.8961 33.4147C42.8961 26.8141 42.8961 20.1455 42.8961 13.5449C42.8961 13.0686 42.8961 12.5922 42.828 12.0478C42.2142 7.62478 38.3956 4.08632 33.8951 4.08632C27.0079 4.01827 20.1889 4.08632 13.3018 4.08632C13.029 4.08632 12.7562 4.08632 12.4835 4.08632C7.57382 4.69874 4.09614 8.57744 4.09614 13.6129C4.09614 16.8792 4.09614 20.1455 4.09614 23.4798Z" fill="white"/>
<path d="M23.5298 10.9595C30.4852 10.9595 36.0768 16.6074 36.0768 23.5482C36.0768 30.421 30.3488 36.0689 23.5298 36.0009C16.5745 35.9328 10.9829 30.3529 10.9829 23.4121C10.9829 16.6074 16.7109 10.9595 23.5298 10.9595ZM32.3263 23.5482C32.3263 18.6488 28.4395 14.7701 23.5298 14.7701C18.6884 14.7701 14.7334 18.6488 14.7334 23.5482C14.7334 28.4476 18.6202 32.3263 23.5298 32.3263C28.3713 32.2583 32.3263 28.3796 32.3263 23.5482Z" fill="white"/>
<path d="M36.0772 12.8654C34.7134 12.8654 33.5542 11.7766 33.5542 10.4157C33.5542 9.05475 34.6452 7.89795 36.0772 7.89795C37.441 7.89795 38.6002 8.98671 38.6002 10.3477C38.6002 11.7086 37.5092 12.7974 36.0772 12.8654Z" fill="white"/>
</svg>

<svg width="47" height="47" fill="none" xmlns="http://www.w3.org/2000/svg"><path d="M46.715 23.548v10.07c0 6.261-4.569 11.705-10.706 12.862-.75.068-1.568.136-2.319.136-6.887 0-13.706.068-20.593 0-3.887-.068-7.092-1.701-9.615-4.627C1.37 39.539.346 36.613.346 33.415v-19.87C.346 7.148 4.778 1.773 11.052.548c.75-.136 1.568-.204 2.318-.204 6.887 0 13.706-.068 20.593 0 3.887.068 7.092 1.7 9.615 4.627 2.114 2.45 3.137 5.308 3.137 8.574v10.003zM4.096 23.48v9.935c0 .476 0 1.02.068 1.497.546 4.423 4.433 7.893 8.865 7.961 6.887.068 13.774 0 20.662 0 .545 0 1.022-.068 1.568-.136 4.637-.885 7.637-4.627 7.637-9.322v-19.87c0-.476 0-.953-.068-1.497-.614-4.423-4.432-7.962-8.933-7.962-6.887-.068-13.706 0-20.593 0h-.819c-4.91.613-8.387 4.491-8.387 9.527v9.867z" fill="#fff"/><path d="M23.53 10.96c6.955 0 12.547 5.647 12.547 12.588 0 6.873-5.728 12.52-12.547 12.453-6.956-.068-12.547-5.648-12.547-12.589 0-6.805 5.728-12.452 12.547-12.452zm8.796 12.588c0-4.9-3.887-8.778-8.796-8.778-4.842 0-8.797 3.879-8.797 8.778 0 4.9 3.887 8.778 8.797 8.778 4.841-.068 8.796-3.946 8.796-8.778zm3.751-10.683c-1.364 0-2.523-1.088-2.523-2.45a2.514 2.514 0 0 1 2.523-2.517c1.364 0 2.523 1.089 2.523 2.45 0 1.36-1.09 2.45-2.523 2.517z" fill="#fff"/></svg>
